other/hermit.svg

<?xml version="1.0" encoding="UTF-8" standalone="no"?>
<svg
   xmlns:dc="http://purl.org/dc/elements/1.1/"
   xmlns:cc="http://creativecommons.org/ns#"
   xmlns:rdf="http://www.w3.org/1999/02/22-rdf-syntax-ns#"
   xmlns:svg="http://www.w3.org/2000/svg"
   xmlns="http://www.w3.org/2000/svg"
   viewBox="0 0 48 48"
   version="1.1"
   id="svg881">
  <metadata
     id="metadata885">
    <rdf:RDF>
      <cc:Work
         rdf:about="">
        <dc:format>image/svg+xml</dc:format>
        <dc:type
           rdf:resource="http://purl.org/dc/dcmitype/StillImage" />
        <dc:title></dc:title>
      </cc:Work>
    </rdf:RDF>
  </metadata>
  <path
     id="circle1304"
     style="fill:none;stroke:#ffffff;stroke-width:1;stroke-miterlimit:4;stroke-dasharray:none;stroke-opacity:1;stroke-linejoin:round;stroke-linecap:round"
     d="m 5.3808594,31.595703 a 10.536975,10.536975 0 0 0 -1.4472656,0.125 21.5,21.5 0 0 0 12.0019532,12.208985 10.536975,10.536975 0 0 0 0.15625,-1.796876 10.536975,10.536975 0 0 0 -10.5371095,-10.537109 10.536975,10.536975 0 0 0 -0.1738281,0 z m 0.052734,-5.310547 a 15.846672,15.846672 0 0 0 -2.78125,0.267578 21.5,21.5 0 0 0 18.4277342,18.746094 15.846672,15.846672 0 0 0 0.320313,-3.166016 15.846672,15.846672 0 0 0 -15.8457035,-15.847656 15.846672,15.846672 0 0 0 -0.1210937,0 z M 5.5546875,21.119141 A 21.011974,21.011974 0 0 0 2.6679688,21.320312 21.5,21.5 0 0 0 2.5,24 21.5,21.5 0 0 0 24,45.5 21.5,21.5 0 0 0 26.314453,45.375 21.011974,21.011974 0 0 0 26.566406,42.132812 21.011974,21.011974 0 0 0 5.5546875,21.119141 Z m 16.6757815,7.43164 v 0.796875 a 21.011974,21.011974 0 0 1 1.765625,2.712891 h 1.746094 v -3.509766 z m 6.388672,0 v 3.509766 h 3.509765 V 28.550781 Z M 15.927734,22.138672 v 1.720703 a 21.011974,21.011974 0 0 1 2.660157,1.791016 H 19.4375 v -3.511719 z m 6.302735,0 v 3.511719 h 3.511719 v -3.511719 z m 6.388672,0 v 3.511719 h 3.509765 v -3.511719 z m -2.88e-4,-6.209607 h 3.510598 v 3.510598 h -3.510598 z m -6.387469,0 h 3.510599 v 3.510598 h -3.510599 z m -6.304311,0 h 3.510598 v 3.510598 H 15.927073 Z M 45.5,24 A 21.5,21.5 0 0 1 24,45.5 21.5,21.5 0 0 1 2.5,24 21.5,21.5 0 0 1 24,2.5 21.5,21.5 0 0 1 45.5,24 Z" />
</svg>

<svg id="Layer_1" data-name="Layer 1" xmlns="http://www.w3.org/2000/svg" viewBox="0 0 48 48"><defs><style>.cls-1{fill:none;stroke:#fff;stroke-linecap:round;stroke-linejoin:round;}</style></defs><path id="circle1304" class="cls-1" d="M5.38,31.6a10.13,10.13,0,0,0-1.45.12,21.5,21.5,0,0,0,12,12.21,10.75,10.75,0,0,0,.15-1.8A10.53,10.53,0,0,0,5.55,31.6H5.38Zm0-5.31a15.3,15.3,0,0,0-2.78.26A21.5,21.5,0,0,0,21.08,45.3a16,16,0,0,0,.32-3.17A15.84,15.84,0,0,0,5.55,26.29H5.43Zm.12-5.17a21.33,21.33,0,0,0-2.88.2A21.79,21.79,0,0,0,2.5,24,21.51,21.51,0,0,0,24,45.5a22.19,22.19,0,0,0,2.31-.12,20.84,20.84,0,0,0,.26-3.25,21,21,0,0,0-21-21Zm16.68,7.43v.8A21,21,0,0,1,24,32.06h1.74V28.55Zm6.39,0v3.51h3.51V28.55ZM15.93,22.14v1.72a21.7,21.7,0,0,1,2.66,1.79h.85V22.14Zm6.3,0v3.51h3.51V22.14Zm6.39,0v3.51h3.51V22.14Zm0-6.21h3.51v3.51H28.62Zm-6.39,0h3.51v3.51H22.23Zm-6.3,0h3.51v3.51H15.93ZM45.5,24A21.5,21.5,0,1,1,24,2.5,21.51,21.51,0,0,1,45.5,24Z"/></svg>
